img/behance.svg

<svg xmlns="http://www.w3.org/2000/svg"  viewBox="0 0 32 32" width="32px" height="32px"><path d="M 1 6.75 L 1 25.25 L 9.9375 25.25 C 10.765625 25.25 16.46875 25.082031 16.46875 19.875 C 16.46875 16.621094 14.230469 15.515625 13.09375 15.1875 C 13.929688 14.792969 15.59375 13.855469 15.59375 11.34375 C 15.59375 9.945313 15.394531 6.75 9.6875 6.75 Z M 21.375 8.46875 L 21.375 10.15625 L 28.28125 10.15625 L 28.28125 8.46875 Z M 5.0625 9.90625 L 8.875 9.90625 C 9.234375 9.90625 11.65625 9.714844 11.65625 12.03125 C 11.65625 14.011719 9.90625 14.21875 9.1875 14.21875 L 5.0625 14.21875 Z M 25 11.6875 C 19.777344 11.6875 18.6875 16.222656 18.6875 18.1875 C 18.6875 24.019531 23.46875 24.6875 25 24.6875 C 29.128906 24.6875 30.300781 22.015625 30.78125 20.53125 L 27.78125 20.53125 C 27.664063 20.914063 26.789063 22.15625 25.125 22.15625 C 22.335938 22.15625 22.09375 19.976563 22.09375 19 L 30.96875 19 C 31.148438 15.625 29.671875 11.6875 25 11.6875 Z M 24.90625 14.21875 C 25.738281 14.21875 26.410156 14.460938 26.8125 14.90625 C 27.214844 15.355469 27.511719 16.011719 27.59375 16.875 L 22.09375 16.875 C 22.109375 16.636719 22.164063 16.363281 22.25 16.0625 C 22.335938 15.753906 22.46875 15.460938 22.6875 15.1875 C 22.90625 14.917969 23.210938 14.683594 23.5625 14.5 C 23.921875 14.3125 24.367188 14.21875 24.90625 14.21875 Z M 5.0625 17 L 9.46875 17 C 10.34375 17 12.40625 17.136719 12.40625 19.65625 C 12.40625 22.097656 9.808594 22.09375 9.40625 22.09375 L 5.0625 22.09375 Z"/></svg>

<svg id="Capa_1" data-name="Capa 1" xmlns="http://www.w3.org/2000/svg" viewBox="0 0 29.98 18.5"><defs><style>.cls-1{fill:#fff;}</style></defs><path class="cls-1" d="M1,6.75v18.5H9.94c.83,0,6.53-.17,6.53-5.37a4.56,4.56,0,0,0-3.38-4.69,4,4,0,0,0,2.5-3.85c0-1.39-.2-4.59-5.9-4.59ZM21.38,8.47v1.69h6.9V8.47ZM5.06,9.91H8.88c.35,0,2.78-.2,2.78,2.12a2.18,2.18,0,0,1-2.47,2.19H5.06ZM25,11.69c-5.22,0-6.31,4.53-6.31,6.5,0,5.83,4.78,6.5,6.31,6.5a5.5,5.5,0,0,0,5.78-4.16h-3a2.89,2.89,0,0,1-2.65,1.63,2.82,2.82,0,0,1-3-3.16H31C31.15,15.63,29.67,11.69,25,11.69Zm-.09,2.53a2.48,2.48,0,0,1,1.9.69,3.37,3.37,0,0,1,.78,2h-5.5a4.06,4.06,0,0,1,.16-.82,2.39,2.39,0,0,1,.44-.87,2.74,2.74,0,0,1,.87-.69A2.87,2.87,0,0,1,24.91,14.22ZM5.06,17H9.47c.87,0,2.94.14,2.94,2.66s-2.6,2.43-3,2.43H5.06Z" transform="translate(-1 -6.75)"/></svg>
